Origami/24x24/apps/crossover.svg

<svg width="24" height="24" version="1" xmlns="http://www.w3.org/2000/svg">
 <circle cx="12" cy="12.5" r="10" style="opacity:.2"/>
 <circle cx="12" cy="12" r="10" style="fill:#cccccc"/>
 <path d="m13.023 4.9922c0.48 0.9201 0.86 1.7835 1.166 2.6016-0.882-0.0716-1.707-0.1105-2.447-0.0977-6.3618 0.1095-7.4277 3.3389-3.2166 9.6819-0.7773 0.115-1.6081 0.201-2.5254 0.234 11.664 1.981 14.806-1.064 9.463-9.1093 0.776-0.115 1.621-0.1899 2.537-0.2226-1.067-0.1811-2.048-0.3109-2.973-0.4082-0.589-0.8474-1.237-1.7278-2.004-2.6797zm1.465 3.4883c1.448 4.6745-0.216 7.5155-4.9921 8.5235-1.4487-4.675 0.2191-7.515 4.9921-8.5235zm-5.162 8.5625c-0.2039 0.04-0.4121 0.077-0.627 0.111 0.2154-0.034 0.4242-0.07 0.627-0.111zm-0.3731 0.771c0.588 0.844 1.2601 1.738 2.0231 2.686-0.477-0.917-0.864-1.781-1.1696-2.596-0.2705-0.022-0.569-0.06-0.8535-0.09z" style="opacity:.1"/>
 <path d="m13.023 4.4921c8.47 10.5129 6.129 14.6519-7.023 12.4189 8.83-0.315 11.171-4.455 7.023-12.4189" style="fill:#f37421"/>
 <path d="m11.742 6.9963c-6.3645 0.1095-7.4305 3.3427-3.2135 9.6897 0.3375-0.05 0.662-0.108 0.9695-0.175-1.766-5.688 1.067-8.6648 8.502-8.9304-2.466-0.4187-4.552-0.6138-6.258-0.5843zm-2.788 10.3187c0.588 0.843 1.26 1.737 2.023 2.684-0.478-0.916-0.865-1.78-1.1705-2.595-0.2705-0.022-0.568-0.059-0.8525-0.089z" style="fill:#2183f3"/>
 <path d="M 12,2 A 10,10 0 0 0 2,12 10,10 0 0 0 2.0098,12.293 10,10 0 0 1 12,2.5 10,10 0 0 1 21.99,12.207 10,10 0 0 0 22,12 10,10 0 0 0 12,2 Z" style="fill:#ffffff;opacity:.2"/>
</svg>

<svg xmlns="http://www.w3.org/2000/svg" width="24" height="24" version="1">
 <circle style="opacity:0.2" cx="12" cy="12.5" r="10"/>
 <circle style="fill:#cccccc" cx="12" cy="12" r="10"/>
 <path style="opacity:0.1" d="M 13.023,4.9922 C 13.503,5.9123 13.883,6.7757 14.189,7.5938 13.307,7.5222 12.482,7.4833 11.742,7.4961 5.3802,7.6056 4.3143,10.835 8.5254,17.178 7.7481,17.293 6.9173,17.379 6,17.412 17.664,19.393 20.806,16.348 15.463,8.3027 16.239,8.1877 17.084,8.1128 18,8.0801 16.933,7.899 15.952,7.7692 15.027,7.6719 14.438,6.8245 13.79,5.9441 13.023,4.9922 Z M 14.488,8.4805 C 15.936,13.155 14.272,15.996 9.4959,17.004 8.0472,12.329 9.715,9.489 14.488,8.4805 Z M 9.326,17.043 C 9.1221,17.083 8.9139,17.12 8.699,17.154 8.9144,17.12 9.1232,17.084 9.326,17.043 Z M 8.9529,17.814 C 9.5409,18.658 10.213,19.552 10.976,20.5 10.499,19.583 10.112,18.719 9.8064,17.904 9.5359,17.882 9.2374,17.844 8.9529,17.814 Z"/>
 <path style="fill:#f37421" d="M 13.023,4.4921 C 21.493,15.005 19.152,19.144 6,16.911 14.83,16.596 17.171,12.456 13.023,4.4921"/>
 <path style="fill:#2183f3" d="M 11.742,6.9963 C 5.3775,7.1058 4.3115,10.339 8.5285,16.686 8.866,16.636 9.1905,16.578 9.498,16.511 7.732,10.823 10.565,7.8462 18,7.5806 15.534,7.1619 13.448,6.9668 11.742,6.9963 Z M 8.954,17.315 C 9.542,18.158 10.214,19.052 10.977,19.999 10.499,19.083 10.112,18.219 9.8065,17.404 9.536,17.382 9.2385,17.345 8.954,17.315 Z"/>
 <path style="opacity:0.2;fill:#ffffff" d="M 12,2 A 10,10 0 0 0 2,12 10,10 0 0 0 2.0098,12.293 10,10 0 0 1 12,2.5 10,10 0 0 1 21.99,12.207 10,10 0 0 0 22,12 10,10 0 0 0 12,2 Z"/>
</svg>
